public/images/poses-lg/Scale.svg

<svg width="800" height="800" fill="none" xmlns="http://www.w3.org/2000/svg"><path d="M459.619 473.172c18.82 6.416 33.864 29.686 39.294 49.599 5.436 19.919 34.815 87.628 37.132 133.9 2.316 46.27.479 104.804 4.241 111.533 3.76 6.735 34.19 10.809 37.923 16.136 3.742 5.328-5.955 10.877-25.7 10.921-19.745.049-27.919.45-31.685-12.277-3.761-12.732-4.07-72.965-7.179-105.207-3.104-32.249-31.344-102.031-35.73-111.977-4.389-9.945-13.698-16.329-13.698-16.329l-29.814-36.451 25.216-39.848Z" fill="#fff" stroke="#000" stroke-width="5" stroke-miterlimit="10"/><path d="M459.619 473.172c18.82 6.416 33.864 29.686 39.294 49.599 5.436 19.919 34.815 87.628 37.132 133.9 2.316 46.27.479 104.804 4.241 111.533 3.76 6.735 34.19 10.809 37.923 16.136 3.742 5.328-5.955 10.877-25.7 10.921-19.745.049-27.919.45-31.685-12.277-3.761-12.732-4.07-72.965-7.179-105.207-3.104-32.249-31.344-102.031-35.73-111.977-4.389-9.945-13.698-16.329-13.698-16.329l-29.814-36.451 25.216-39.848Z" stroke="#000" stroke-width="5" stroke-miterlimit="10"/><path d="M340.385 473.172c-18.822 6.416-33.866 29.686-39.3 49.599-5.431 19.919-34.809 87.628-37.127 133.9-2.316 46.27-.483 104.804-4.244 111.533-3.762 6.735-34.188 10.809-37.925 16.136-3.736 5.328 5.955 10.877 25.701 10.921 19.746.049 27.924.45 31.685-12.277 3.765-12.732 4.075-72.965 7.179-105.207 3.104-32.249 31.342-102.031 35.731-111.977 4.388-9.945 13.642-16.213 13.642-16.213l29.875-36.567-25.217-39.848Z" fill="#fff" stroke="#000" stroke-width="5" stroke-miterlimit="10"/><path d="M340.385 473.172c-18.822 6.416-33.866 29.686-39.3 49.599-5.431 19.919-34.809 87.628-37.127 133.9-2.316 46.27-.483 104.804-4.244 111.533-3.762 6.735-34.188 10.809-37.925 16.136-3.736 5.328 5.955 10.877 25.701 10.921 19.746.049 27.924.45 31.685-12.277 3.765-12.732 4.075-72.965 7.179-105.207 3.104-32.249 31.342-102.031 35.731-111.977 4.388-9.945 13.642-16.213 13.642-16.213l29.875-36.567-25.217-39.848Z" stroke="#000" stroke-width="5" stroke-miterlimit="10"/><path d="M408.807 664.296c33.85-13.005 138.377-31.186 157.497-7.522 19.119 23.663 6.861 43.336-15.359 54.379-22.22 11.044-76.947 26.797-121.921 21-44.978-5.799-96.847-30.559-96.847-30.559l8.462-30.715 68.168-6.583Z" fill="#fff" stroke="#000" stroke-width="5" stroke-miterlimit="10"/><path d="M408.807 664.296c33.85-13.005 138.377-31.186 157.497-7.522 19.119 23.663 6.861 43.336-15.359 54.379-22.22 11.044-76.947 26.797-121.921 21-44.978-5.799-96.847-30.559-96.847-30.559l8.462-30.715 68.168-6.583Z" stroke="#000" stroke-width="5" stroke-miterlimit="10"/><path d="m337.818 654.082 61.672 16.795 58.684-24.882s-2.894-42.893 6.043-96.529l-2.397-11.308a102.384 102.384 0 0 1-2.227-21.278l.025-43.705c-17.998-7.448-47.357-12.454-59.617-12.454-12.262 0-41.62 5.005-59.617 12.454l.02 42.569c.006 7.904-.82 15.789-2.459 23.527l-2.22 10.312c5.559 51.442 2.093 104.499 2.093 104.499Z" fill="#fff" stroke="#000" stroke-width="5" stroke-miterlimit="10"/><path d="m337.818 654.082 61.672 16.795 58.684-24.882s-2.894-42.893 6.043-96.529l-2.397-11.308a102.384 102.384 0 0 1-2.227-21.278l.025-43.705c-17.998-7.448-47.357-12.454-59.617-12.454-12.262 0-41.62 5.005-59.617 12.454l.02 42.569c.006 7.904-.82 15.789-2.459 23.527l-2.22 10.312c5.559 51.442 2.093 104.499 2.093 104.499Z" stroke="#000" stroke-width="5" stroke-miterlimit="10"/><path d="M434.401 433.833c-.199 30.781-21.574 58.691-34.782 58.605-13.205-.083-34.216-28.27-34.016-59.053.201-30.777 68.998-30.329 68.798.448Z" fill="#fff" stroke="#000" stroke-width="5" stroke-miterlimit="10"/><path d="M434.401 433.833c-.199 30.781-21.574 58.691-34.782 58.605-13.205-.083-34.216-28.27-34.016-59.053.201-30.777 68.998-30.329 68.798.448Z" stroke="#000" stroke-width="5" stroke-miterlimit="10"/><path d="M354.969 468.252c.983 36.137 34.645 54.519 45.419 54.519 10.777 0 41.431-18.563 44.676-54.519" stroke="#000" stroke-width="5" stroke-miterlimit="10"/><path d="M506.79 726.119c-10.183 11.14-34.83 26.928-63.666 24.758-28.836-2.171-39.17-7.869-45.331-7.869-6.163 0-28.227 5.094-45.566 6.547-17.334 1.45-44.322-2.899-90.692-40.107-46.37-37.211-27.788-64.354-21.932-73.559 5.859-9.202 46.603-13.154 92.99 0 46.386 13.154 69.108 10.439 98.388 5.216 29.278-5.226 41.353-19.617 54.139-23.924 10.243-3.449 20.395 15.242 7.108 24.133-4.367 2.924-9.894 3.984-16.716 7.204-13.932 6.579-30.678 9.626-38.811 12.488-12.115 4.268-56.364 18.933-81.125 28.336 0 0 19.309 8.91 49.521 20.507 30.621 11.755 48.374 13.896 64.353 15.044 15.986 1.149 37.34 1.226 37.34 1.226Z" fill="#fff" stroke="#000" stroke-width="5" stroke-miterlimit="10"/><path d="M506.79 726.119c-10.183 11.14-34.83 26.928-63.666 24.758-28.836-2.171-39.17-7.869-45.331-7.869-6.163 0-28.227 5.094-45.566 6.547-17.334 1.45-44.322-2.899-90.692-40.107-46.37-37.211-27.788-64.354-21.932-73.559 5.859-9.202 46.603-13.154 92.99 0 46.386 13.154 69.108 10.439 98.388 5.216 29.278-5.226 41.353-19.617 54.139-23.924 10.243-3.449 20.395 15.242 7.108 24.133-4.367 2.924-9.894 3.984-16.716 7.204-13.932 6.579-30.678 9.626-38.811 12.488-12.115 4.268-56.364 18.933-81.125 28.336 0 0 19.309 8.91 49.521 20.507 30.621 11.755 48.374 13.896 64.353 15.044 15.986 1.149 37.34 1.226 37.34 1.226Z" stroke="#000" stroke-width="5" stroke-miterlimit="10"/><path d="M356.936 689.345c-38.445 5.356-76.432-5.422-76.432-5.422" stroke="#000" stroke-width="5" stroke-miterlimit="10"/><path d="M371.019 411.111c-18.091 37.501 10.47 82.551 26.9 82.766 16.429.215 46.168-44.06 29.069-82.026-10.776-23.933-44.565-24.378-55.969-.74Z" fill="#fff" stroke="#000" stroke-width="5" stroke-miterlimit="10"/><path d="M371.019 411.111c-18.091 37.501 10.47 82.551 26.9 82.766 16.429.215 46.168-44.06 29.069-82.026-10.776-23.933-44.565-24.378-55.969-.74Z" stroke="#000" stroke-width="5" stroke-miterlimit="10"/><path d="M504.506 456.266c-14.428-7.919-10.768-18.081-23.567-28.237-12.799-10.157-28.656-3.296-35.351-19.704-6.633-16.261-28.243-25.546-47.077-25.321H398.454c-18.834-.225-40.446 9.06-47.079 25.321-6.698 16.409-22.551 9.547-35.349 19.704-12.801 10.156-9.142 20.318-23.567 28.237-14.425 7.924-15.599 7.191-15.035 13.411.832 9.175 33.634 5.546 58.235 6.175 4.821.12 22.382 5.005 27.079 6.102 9.607 2.253 21.947 1.934 22.202-1.51.406-5.488-1.35-18.532-5.095-25.211-3.741-6.683-11.471-4.528-11.471-14.327 0-9.139 3.754-5.583 12.384-13.713 7.613-7.167 15.231-15.471 17.723-22.213 2.492 6.741 10.113 15.044 17.723 22.213 8.632 8.129 12.385 4.574 12.385 13.713 0 9.798-7.731 7.644-11.474 14.327-3.741 6.679-5.499 19.723-5.093 25.211.255 3.444 12.595 3.763 22.202 1.51 4.696-1.097 22.258-5.982 27.079-6.102 24.603-.629 57.405 3 58.238-6.175.563-6.219-.612-5.487-15.035-13.411Z" fill="#000" stroke="#000" stroke-width="5" stroke-miterlimit="10"/><path d="M420.593 642.862c3.731 3.257 6.9 17.463 5.708 21.719" stroke="#000" stroke-width="5" stroke-miterlimit="10"/></svg>

<svg width="800" height="800" viewBox="0 0 800 800" fill="none" xmlns="http://www.w3.org/2000/svg">
<path d="M459.619 473.172C478.439 479.588 493.483 502.858 498.913 522.771C504.349 542.69 533.728 610.399 536.045 656.671C538.361 702.941 536.524 761.475 540.286 768.204C544.046 774.939 574.476 779.013 578.209 784.34C581.951 789.668 572.254 795.217 552.509 795.261C532.764 795.31 524.59 795.711 520.824 782.984C517.063 770.252 516.754 710.019 513.645 677.777C510.541 645.528 482.301 575.746 477.915 565.8C473.526 555.855 464.217 549.471 464.217 549.471L434.403 513.02L459.619 473.172Z" fill="white" stroke="black" stroke-width="5" stroke-miterlimit="10"/>
<path d="M459.619 473.172C478.439 479.588 493.483 502.858 498.913 522.771C504.349 542.69 533.728 610.399 536.045 656.671C538.361 702.941 536.524 761.475 540.286 768.204C544.046 774.939 574.476 779.013 578.209 784.34C581.951 789.668 572.254 795.217 552.509 795.261C532.764 795.31 524.59 795.711 520.824 782.984C517.063 770.252 516.754 710.019 513.645 677.777C510.541 645.528 482.301 575.746 477.915 565.8C473.526 555.855 464.217 549.471 464.217 549.471L434.403 513.02L459.619 473.172Z" stroke="black" stroke-width="5" stroke-miterlimit="10"/>
<path d="M340.385 473.172C321.563 479.588 306.519 502.858 301.085 522.771C295.654 542.69 266.276 610.399 263.958 656.671C261.642 702.941 263.475 761.475 259.714 768.204C255.952 774.939 225.526 779.013 221.789 784.34C218.053 789.668 227.744 795.217 247.49 795.261C267.236 795.31 275.414 795.711 279.175 782.984C282.94 770.252 283.25 710.019 286.354 677.777C289.458 645.528 317.696 575.746 322.085 565.8C326.473 555.855 335.727 549.587 335.727 549.587L365.602 513.02L340.385 473.172Z" fill="white" stroke="black" stroke-width="5" stroke-miterlimit="10"/>
<path d="M340.385 473.172C321.563 479.588 306.519 502.858 301.085 522.771C295.654 542.69 266.276 610.399 263.958 656.671C261.642 702.941 263.475 761.475 259.714 768.204C255.952 774.939 225.526 779.013 221.789 784.34C218.053 789.668 227.744 795.217 247.49 795.261C267.236 795.31 275.414 795.711 279.175 782.984C282.94 770.252 283.25 710.019 286.354 677.777C289.458 645.528 317.696 575.746 322.085 565.8C326.473 555.855 335.727 549.587 335.727 549.587L365.602 513.02L340.385 473.172Z" stroke="black" stroke-width="5" stroke-miterlimit="10"/>
<path d="M408.807 664.296C442.657 651.291 547.184 633.11 566.304 656.774C585.423 680.437 573.165 700.11 550.945 711.153C528.725 722.197 473.998 737.95 429.024 732.153C384.046 726.354 332.177 701.594 332.177 701.594L340.639 670.879L408.807 664.296Z" fill="white" stroke="black" stroke-width="5" stroke-miterlimit="10"/>
<path d="M408.807 664.296C442.657 651.291 547.184 633.11 566.304 656.774C585.423 680.437 573.165 700.11 550.945 711.153C528.725 722.197 473.998 737.95 429.024 732.153C384.046 726.354 332.177 701.594 332.177 701.594L340.639 670.879L408.807 664.296Z" stroke="black" stroke-width="5" stroke-miterlimit="10"/>
<path d="M337.818 654.082L399.49 670.877L458.174 645.995C458.174 645.995 455.28 603.102 464.217 549.466L461.82 538.158C460.339 531.163 459.588 524.032 459.593 516.88L459.618 473.175C441.62 465.727 412.261 460.721 400.001 460.721C387.739 460.721 358.381 465.726 340.384 473.175L340.404 515.744C340.41 523.648 339.584 531.533 337.945 539.271L335.725 549.583C341.284 601.025 337.818 654.082 337.818 654.082Z" fill="white" stroke="black" stroke-width="5" stroke-miterlimit="10"/>
<path d="M337.818 654.082L399.49 670.877L458.174 645.995C458.174 645.995 455.28 603.102 464.217 549.466L461.82 538.158C460.339 531.163 459.588 524.032 459.593 516.88L459.618 473.175C441.62 465.727 412.261 460.721 400.001 460.721C387.739 460.721 358.381 465.726 340.384 473.175L340.404 515.744C340.41 523.648 339.584 531.533 337.945 539.271L335.725 549.583C341.284 601.025 337.818 654.082 337.818 654.082Z" stroke="black" stroke-width="5" stroke-miterlimit="10"/>
<path d="M434.401 433.833C434.202 464.614 412.827 492.524 399.619 492.438C386.414 492.355 365.403 464.168 365.603 433.385C365.804 402.608 434.601 403.056 434.401 433.833Z" fill="white" stroke="black" stroke-width="5" stroke-miterlimit="10"/>
<path d="M434.401 433.833C434.202 464.614 412.827 492.524 399.619 492.438C386.414 492.355 365.403 464.168 365.603 433.385C365.804 402.608 434.601 403.056 434.401 433.833Z" stroke="black" stroke-width="5" stroke-miterlimit="10"/>
<path d="M354.969 468.252C355.952 504.389 389.614 522.771 400.388 522.771C411.165 522.771 441.819 504.208 445.064 468.252" stroke="black" stroke-width="5" stroke-miterlimit="10"/>
<path d="M506.79 726.119C496.607 737.259 471.96 753.047 443.124 750.877C414.288 748.706 403.954 743.008 397.793 743.008C391.63 743.008 369.566 748.102 352.227 749.555C334.893 751.005 307.905 746.656 261.535 709.448C215.165 672.237 233.747 645.094 239.603 635.889C245.462 626.687 286.206 622.735 332.593 635.889C378.979 649.043 401.701 646.328 430.981 641.105C460.259 635.879 472.334 621.488 485.12 617.181C495.363 613.732 505.515 632.423 492.228 641.314C487.861 644.238 482.334 645.298 475.512 648.518C461.58 655.097 444.834 658.144 436.701 661.006C424.586 665.274 380.337 679.939 355.576 689.342C355.576 689.342 374.885 698.252 405.097 709.849C435.718 721.604 453.471 723.745 469.45 724.893C485.436 726.042 506.79 726.119 506.79 726.119Z" fill="white" stroke="black" stroke-width="5" stroke-miterlimit="10"/>
<path d="M506.79 726.119C496.607 737.259 471.96 753.047 443.124 750.877C414.288 748.706 403.954 743.008 397.793 743.008C391.63 743.008 369.566 748.102 352.227 749.555C334.893 751.005 307.905 746.656 261.535 709.448C215.165 672.237 233.747 645.094 239.603 635.889C245.462 626.687 286.206 622.735 332.593 635.889C378.979 649.043 401.701 646.328 430.981 641.105C460.259 635.879 472.334 621.488 485.12 617.181C495.363 613.732 505.515 632.423 492.228 641.314C487.861 644.238 482.334 645.298 475.512 648.518C461.58 655.097 444.834 658.144 436.701 661.006C424.586 665.274 380.337 679.939 355.576 689.342C355.576 689.342 374.885 698.252 405.097 709.849C435.718 721.604 453.471 723.745 469.45 724.893C485.436 726.042 506.79 726.119 506.79 726.119Z" stroke="black" stroke-width="5" stroke-miterlimit="10"/>
<path d="M356.936 689.345C318.491 694.701 280.504 683.923 280.504 683.923" stroke="black" stroke-width="5" stroke-miterlimit="10"/>
<path d="M371.019 411.111C352.928 448.612 381.489 493.662 397.919 493.877C414.348 494.092 444.087 449.817 426.988 411.851C416.212 387.918 382.423 387.473 371.019 411.111Z" fill="white" stroke="black" stroke-width="5" stroke-miterlimit="10"/>
<path d="M371.019 411.111C352.928 448.612 381.489 493.662 397.919 493.877C414.348 494.092 444.087 449.817 426.988 411.851C416.212 387.918 382.423 387.473 371.019 411.111Z" stroke="black" stroke-width="5" stroke-miterlimit="10"/>
<path d="M504.506 456.266C490.078 448.347 493.738 438.185 480.939 428.029C468.14 417.872 452.283 424.733 445.588 408.325C438.955 392.064 417.345 382.779 398.511 383.004H398.481H398.454C379.62 382.779 358.008 392.064 351.375 408.325C344.677 424.734 328.824 417.872 316.026 428.029C303.225 438.185 306.884 448.347 292.459 456.266C278.034 464.19 276.86 463.457 277.424 469.677C278.256 478.852 311.058 475.223 335.659 475.852C340.48 475.972 358.041 480.857 362.738 481.954C372.345 484.207 384.685 483.888 384.94 480.444C385.346 474.956 383.59 461.912 379.845 455.233C376.104 448.55 368.374 450.705 368.374 440.906C368.374 431.767 372.128 435.323 380.758 427.193C388.371 420.026 395.989 411.722 398.481 404.98C400.973 411.721 408.594 420.024 416.204 427.193C424.836 435.322 428.589 431.767 428.589 440.906C428.589 450.704 420.858 448.55 417.115 455.233C413.374 461.912 411.616 474.956 412.022 480.444C412.277 483.888 424.617 484.207 434.224 481.954C438.92 480.857 456.482 475.972 461.303 475.852C485.906 475.223 518.708 478.852 519.541 469.677C520.104 463.458 518.929 464.19 504.506 456.266Z" fill="black" stroke="black" stroke-width="5" stroke-miterlimit="10"/>
<path d="M420.593 642.862C424.324 646.119 427.493 660.325 426.301 664.581" stroke="black" stroke-width="5" stroke-miterlimit="10"/>
</svg>
